X: 871
T: Old man Quinn
C: anon.
O: Ireland
B: Francis O'Neill: "The Dance Music of Ireland" (1907) no. 871
R: Hornpipe
Z: Transcribed by Frank Nordberg - http://www.musicaviva.com
F: http://www.musicaviva.com/abc/tunes/ireland/oneill-1001/oneill-1001-087
1.abc
M: C|
L: 1/8
K: D
A>G|F>DF>A d>fe>d|c>de>c A>BA>G|F>DF>A d>fe>d|c2A2A2A>G|F>DF>A d>fe>d|
c>de>c A>BA>G|(3Bcd A>B G>F (3EFG|F2D2D2::g2|f>df>g a>fd>f|e>de>f g>ec>e|
d>cB>A d>fe>d|c2A2A2d>c|
(3BcB (3ABA G>AG>A|(3Bcd (3ABA F>GF>A|(3Bcd A>B G>F (3EFG|F2D2D2::AG|(3FG
F (3EFE D>FA>d|(3cBA B>c A>ce>g|
(3fff d>f g>fe>d|c2A2A2 d>c|(3BcB (3ABA G>AG>A|(3Bcd (3ABA F>GF>A|(3Bcd A
>B G>F (3EFG|F2D2D2:|
W:
W:
W: From Musica Viva - http://www.musicaviva.com
W: the Internet center for free sheet music downloads.


